resources/svg/mic-off-fill.svg

<svg fill="currentColor" viewBox="0 0 24 24" xmlns="http://www.w3.org/2000/svg"><path d="M16.4259 17.839C15.3939 18.4228 14.2351 18.8087 13.0011 18.9451V23H11.0011V18.9451C6.82952 18.4839 3.51721 15.1716 3.05606 11H5.07202C5.55725 14.3923 8.47466 17 12.0011 17C13.0513 17 14.0474 16.7688 14.9413 16.3544L13.3912 14.8042C12.9499 14.9317 12.4835 15 12.0011 15C9.23971 15 7.00113 12.7614 7.00113 10V8.41421L1.39453 2.80761L2.80874 1.3934L22.6077 21.1924L21.1935 22.6066L16.4259 17.839ZM19.3757 15.1604L17.9333 13.7179C18.4417 12.9084 18.789 11.9874 18.9302 11H20.9462C20.7763 12.5366 20.2197 13.9565 19.3757 15.1604ZM16.4668 12.2514L7.68672 3.47139C8.55524 1.99268 10.1623 1 12.0011 1C14.7626 1 17.0011 3.23858 17.0011 6V10C17.0011 10.8099 16.8086 11.5748 16.4668 12.2514Z"/></svg>

<svg xmlns="http://www.w3.org/2000/svg" viewBox="0 0 24 24" fill="currentColor">
    <g>
        <path fill="none" d="M0 0h24v24H0z"/>
        <path d="M16.425 17.839A8.941 8.941 0 0 1 13 18.945V23h-2v-4.055A9.004 9.004 0 0 1 3.055 11H5.07a7.002 7.002 0 0 0 9.87 5.354l-1.551-1.55A5 5 0 0 1 7 10V8.414L1.393 2.808l1.415-1.415 19.799 19.8-1.415 1.414-4.767-4.768zm2.95-2.679l-1.443-1.442c.509-.81.856-1.73.997-2.718h2.016a8.95 8.95 0 0 1-1.57 4.16zm-2.91-2.909l-8.78-8.78A5 5 0 0 1 17 6l.001 4a4.98 4.98 0 0 1-.534 2.251z"/>
    </g>
</svg>
